64x64/apps/mintsources-ppa.svg

<svg height="64" width="64" xmlns="http://www.w3.org/2000/svg"><circle cx="32" cy="33" opacity=".2" r="28"/><circle cx="32" cy="32" fill="#f4f4f7" r="28"/><path d="m24 37.5v-9l8-4.5 8 4.5v9l-8 4.5zm9.085-23.787v7.912l8.266 4.487 6.888-4.133zm-2.755 0v7.912l-8.266 4.487-6.888-4.133zm19.251 10.297-6.852 3.955.248 9.402 7.023 3.899zm-35.163 0 6.853 3.956-.248 9.401-7.023 3.9zm18.667 28.277v-7.912l8.266-4.487 6.888 4.133zm-2.755 0v-7.912l-8.266-4.487-6.888 4.133z" opacity=".1"/><path d="m24 36.5v-9l8-4.5 8 4.5v9l-8 4.5z" fill="#d6ac12"/><path d="m33.085 12.713v7.912l8.266 4.487 6.888-4.133z" fill="#8fb635"/><path d="m30.33 12.713v7.912l-8.266 4.487-6.888-4.133z" fill="#3895bd"/><path d="m49.581 23.01-6.852 3.955.248 9.402 7.023 3.899z" fill="#d18c3b"/><path d="m14.418 23.01 6.853 3.956-.248 9.401-7.023 3.899z" fill="#3941bf"/><path d="m33.085 51.287v-7.912l8.266-4.487 6.888 4.133z" fill="#a02c35"/><path d="m30.33 51.287v-7.912l-8.266-4.487-6.888 4.133z" fill="#bb3a84"/><path d="m32 4a28 28 0 0 0 -28 28 28 28 0 0 0 .021.586 28 28 0 0 1 27.979-27.586 28 28 0 0 1 27.979 27.414 28 28 0 0 0 .021-.414 28 28 0 0 0 -28-28z" fill="#f4f4f7" opacity=".2"/></svg>

<svg xmlns="http://www.w3.org/2000/svg" width="64" height="64" version="1"><circle style="opacity:.2" cx="32" cy="33" r="28"/><circle style="fill:#f4f4f7" cx="32" cy="32" r="28"/><g style="opacity:.1"><path d="M24 37.5v-9l8-4.5 8 4.5v9L32 42zM33.085 13.713v7.912l8.266 4.487 6.888-4.133zM30.33 13.713v7.912l-8.266 4.487-6.888-4.133zM49.581 24.01l-6.852 3.955.248 9.402L50 41.266zM14.418 24.01l6.853 3.956-.248 9.401-7.023 3.9zM33.085 52.287v-7.912l8.266-4.487 6.888 4.133zM30.33 52.287v-7.912l-8.266-4.487-6.888 4.133z"/></g><path style="fill:#d6ac12" d="M24 36.5v-9l8-4.5 8 4.5v9L32 41z"/><path style="fill:#8fb635" d="M33.085 12.713v7.912l8.266 4.487 6.888-4.133z"/><path style="fill:#3895bd" d="M30.33 12.713v7.912l-8.266 4.487-6.888-4.133z"/><path style="fill:#d18c3b" d="m49.581 23.01-6.852 3.955.248 9.402L50 40.266z"/><path style="fill:#3941bf" d="m14.418 23.01 6.853 3.956-.248 9.401L14 40.266z"/><path style="fill:#a02c35" d="M33.085 51.287v-7.912l8.266-4.487 6.888 4.133z"/><path style="fill:#bb3a84" d="M30.33 51.287v-7.912l-8.266-4.487-6.888 4.133z"/><path style="opacity:.2;fill:#f4f4f7" d="M32 4A28 28 0 0 0 4 32a28 28 0 0 0 .021.586A28 28 0 0 1 32 5a28 28 0 0 1 27.979 27.414A28 28 0 0 0 60 32 28 28 0 0 0 32 4z"/></svg>
